packages/gestalt/src/icons/hand-pointing.svg

<svg height="24" width="24" xmlns="http://www.w3.org/2000/svg"><path d="M17.776 22.39c-4.001 1.588-8.53-.031-10.557-3.62a12.383 12.383 0 0 1-.531-.86c-1.556-2.747-3.66-4.128-4.1-4.329-.439-.203-1.993-.968-1.488-1.889.281-.512 1.063-.891 1.778-.966 1.122-.245 3.019.308 4.894 1.496L4.054 3.419a1.716 1.716 0 0 1 .555-2.04l.012-.01c.055-.042.113-.08.175-.116.014-.006.025-.014.039-.022.066-.036.135-.071.207-.099l.003-.001.002-.002a1.93 1.93 0 0 1 .22-.069c.014-.003.028-.006.042-.011.071-.014.14-.028.209-.036l.016-.002c.783-.083 1.559.336 1.872 1.077l2.186 5.173a1.754 1.754 0 0 1 1.117-1.485c.924-.366 1.98.063 2.36.958a.183.183 0 0 0 .008.025 1.762 1.762 0 0 1 1.114-1.447c.926-.366 1.982.061 2.36.959.016.034.027.07.04.108a1.757 1.757 0 0 1 1.104-1.373c.924-.366 1.924-.036 2.304.861l.002.005s1.114 2.167 2.365 5.779c.047.14.091.28.129.421 1.532 4.089-.528 8.656-4.719 10.318"/></svg>

<svg height="24" width="24" xmlns="http://www.w3.org/2000/svg"><path d="M17.776,22.390 C13.775,23.978 9.246,22.359 7.219,18.770 C7.040,18.503 6.860,18.218 6.688,17.910 C5.132,15.163 3.028,13.782 2.588,13.581 C2.149,13.378 0.595,12.613 1.100,11.692 C1.381,11.180 2.163,10.801 2.878,10.726 C4.000,10.481 5.897,11.034 7.772,12.222 L4.054,3.419 C3.741,2.677 3.989,1.850 4.609,1.379 C4.612,1.376 4.616,1.373 4.621,1.369 C4.676,1.327 4.734,1.289 4.796,1.253 C4.810,1.247 4.821,1.239 4.835,1.231 C4.901,1.195 4.970,1.160 5.042,1.132 C5.044,1.131 5.044,1.131 5.045,1.131 C5.045,1.131 5.045,1.131 5.047,1.129 C5.119,1.101 5.193,1.079 5.267,1.060 C5.281,1.057 5.295,1.054 5.309,1.049 C5.380,1.035 5.449,1.021 5.518,1.013 C5.525,1.013 5.529,1.011 5.534,1.011 C6.317,0.928 7.093,1.347 7.406,2.088 L9.592,7.261 C9.643,6.623 10.055,6.035 10.709,5.776 C11.633,5.410 12.689,5.839 13.069,6.734 C13.071,6.742 13.074,6.752 13.077,6.759 C13.143,6.136 13.552,5.565 14.191,5.312 C15.117,4.946 16.173,5.373 16.551,6.271 C16.567,6.305 16.578,6.341 16.591,6.379 C16.680,5.784 17.079,5.249 17.695,5.006 C18.619,4.640 19.619,4.970 19.999,5.867 L20.001,5.872 C20.001,5.872 21.115,8.039 22.366,11.651 C22.413,11.791 22.457,11.931 22.495,12.072 C24.027,16.161 21.967,20.728 17.776,22.390"/></svg>
